!!!!SEGMENT: pl-kk--kk-i-10--023_anonim--stabat-mater-dolorosa.krn
!!!cenid: 16xx:1228
!!!COM: Anonim
!!!COM-rismid: pe30004985
!!!CDT:
!!!CNT:
!!!OTL: Stabat Mater dolorosa
!!!PDT:
!!!AGN:
!!!SMS-siglum: PL-Kk
!!!SMS-shelfmark: Kk.I.10
!!!SMS-shelfwork: 023 W
!!!SMS-variant:
!!!SMS-altvar:
!!!NIFC-rismid: 1001154022
!!!URL-scan: http://repozytorium.nifc.pl/skany/pl-kk-nut--i-10
!!!ONB-nifc: UWAGA: A (skan 0048), T (0095 – incpl.), B (0143). W księdze II pomiędzy zapis utworu włożone inne karty. Na f. 40r prawdopodobnie głos T (1) tego samego "Stabat Mater", spisany inną ręką (proszę także uwzględnić). Na f. 40v fragment końcówki jakiejś kompozycji. Następny utwór: Iste quem laeti colimus
**kern	**text	**text	**text	**text	**fba	**kern	**text	**text	**text	**text	**kern	**text	**text	**text	**text	**kern	**text	**text	**text	**text
*part4	*part4	*part4	*part4	*part4	*part4	*part3	*part3	*part3	*part3	*part3	*part2	*part2	*part2	*part2	*part2	*part1	*part1	*part1	*part1	*part1
*staff4	*staff4	*staff4	*staff4	*staff4	*staff4	*staff3	*staff3	*staff3	*staff3	*staff3	*staff2	*staff2	*staff2	*staff2	*staff2	*staff1	*staff1	*staff1	*staff1	*staff1
*Iempty	*	*	*	*	*	*Itenor	*	*	*	*	*Itenor	*	*	*	*	*Ialto	*	*	*	*
*I"[Baſsus]	*	*	*	*	*	*I"[Tenor]	*	*	*	*	*I"[Tenor]	*	*	*	*	*I"[Alt(us)]	*	*	*	*
*I'B	*	*	*	*	*	*I'T2	*	*	*	*	*I'T1	*	*	*	*	*I'A	*	*	*	*
*clefF4	*	*	*	*	*	*clefC4	*	*	*	*	*clefC4	*	*	*	*	*clefC3	*	*	*	*
*k[b-]	*	*	*	*	*	*k[b-]	*	*	*	*	*k[b-]	*	*	*	*	*k[b-]	*	*	*	*
*g:	*	*	*	*	*	*g:	*	*	*	*	*g:	*	*	*	*	*g:	*	*	*	*
*M4/4	*	*	*	*	*	*M4/4	*	*	*	*	*M4/4	*	*	*	*	*M4/4	*	*	*	*
*all\right	*	*	*	*	*	*all\right	*	*	*	*	*all\right	*	*	*	*	*all\right	*	*	*	*
*2\right	*	*	*	*	*	*2\right	*	*	*	*	*2\right	*	*	*	*	*2\right	*	*	*	*
=1	=1	=1	=1	=1	=1	=1	=1	=1	=1	=1	=1	=1	=1	=1	=1	=1	=1	=1	=1	=1
!	!	!	!	!	!	!LO:TX:t=P:problem:all\right	!	!	!	!	!	!	!	!	!	!	!	!	!	!
!	!	!	!	!	!	!LO:TX:t=P:problem:druga część tego głosu zapisana na skanie nr 0098	!	!	!	!	!	!	!	!	!	!	!	!	!	!
!LO:TX:t=P:problem:all\right	!	!	!	!	!	!LO:N:acc=#	!	!	!	!	!	!	!	!	!	!LO:TX:t=P:problem:all\right	!	!	!	!
2.G\	1 Sta-	2 Cu-	7 Pro	8 Vi-	-	2.Bn\	1 Sta-	2 Cu-	7 Pro	8 Vi-	2.d\	1. Sta-	2. Cu-	7. Pro	8 Vi-	2.g\	1 Sta-	2 Cu-	7 Pro	8 Vi-
!	!	!	!	!	!	!	!	!	!	!	!	!	!	!	!	!	!	!	!	!
4G\	-bat	-ius	pec-	-dit	.	4B\	-bat	-ius	pec-	-dit	4d\	-bat	-jus	pec-	-dit	4g\	-bat	-ius	pec-	-dit
=2	=2	=2	=2	=2	=2	=2	=2	=2	=2	=2	=2	=2	=2	=2	=2	=2	=2	=2	=2	=2
4.C/	Ma-	a-	-ca-	ſu-	.	4.c\	Ma-	a-	-ca-	ſu-	4.e-X\	Ma-	a-	-ca-	su-	4.g\	Ma-	a-	-ca-	ſu-
8C/	-ter	-ni-	-tis	-um	.	8c\	-ter	-ni-	-tis	-um	8e-\	-ter	-ni-	-tis	-um	8g\	-ter	-ni-	-tis	-um
4C/	do-	-mam	ſu-	dul-	.	4c\	do-	-mam	ſu-	dul-	4e-\	Do-	-mam	su-	dul-	4g\	do-	-mam	ſu-	dul-
!	!	!	!	!	!	!	!	!	!	!	!	!	!	!	!	!	!	!	!	!
4G\	-lo-	ge-	-ae	-cem	.	4B-X\	-lo-	ge-	-ae	-cem	4d\	-lo-	ge-	-ae	-cem	8g\L	-lo-	ge-	-ae	-ce(m)
!	!	!	!	!	!	!	!	!	!	!	!	!	!	!	!	!	!	!	!	!
.	.	.	.	.	.	.	.	.	.	.	.	.	.	.	.	8a\J	.	.	.	.
=3	=3	=3	=3	=3	=3	=3	=3	=3	=3	=3	=3	=3	=3	=3	=3	=3	=3	=3	=3	=3
2D/	-ro-	-men-	gen-	na-	.	2A/	-ro-	-men-	gen-	na-	2d\	-ro-	-men-	gen-	na-	2f#X\	-ro-	-men-	gen-	na-
!	!	!	!	!	!	!	!	!	!	!	!	!	!	!	!	!	!	!	!	!
2D/	-ſa	-tem	-tis	-tum	.	2A/	-ſa	-tem	-tis	-tum	2d\	-sa	-te	-tis	-tu(m)	2f#\	sa	-tem	-tis	-tum
=4	=4	=4	=4	=4	=4	=4	=4	=4	=4	=4	=4	=4	=4	=4	=4	=4	=4	=4	=4	=4
4r	.	.	.	.	.	4r	.	.	.	.	4r	.	.	.	.	4r	.	.	.	.
!	!	!	!	!	!	!	!	!	!	!	!	!	!	!	!	!LO:N:acc=♭	!	!	!	!
*	*ij	*ij	*ij	*ij	*	*	*ij	*ij	*ij	*ij	*	*ij	*ij	*ij	*ij	*	*ij	*ij	*ij	*ij
2B-\	Sta-	Cu-	Pro	Vi-	.	2B-X\	Sta-	Cu-	Pro	Vi-	2d\	Sta-	Cu-	Pro	Vi-	2fn\	Sta-	Cu-	Pro	Vi-
!	!	!	!	!	!	!	!	!	!	!	!	!	!	!	!	!	!	!	!	!
4B-\	-bat	-ius	pec-	-dit	.	4B-\	-bat	-ius	pec-	-dit	4d\	-bat	-jus	pec-	-dit	4f\	-bat	-ius	pec-	-dit
!	!	!	!	!	!	!	!	!	!	!	!LO:TX:t=P:problem:♭ above	!	!	!	!	!	!	!	!	!
=5	=5	=5	=5	=5	=5	=5	=5	=5	=5	=5	=5	=5	=5	=5	=5	=5	=5	=5	=5	=5
4.E-X\	Ma-	a-	-ca-	ſu-	.	4.B-\	Ma-	a-	-ca-	ſu-	4.e-X\	ma-	a-	-ca-	su-	4.g\	Ma-	a-	-ca-	ſu-
8E-\	-ter	-ni-	-tis	-um	.	8B-\	-ter	-ni-	-tis	-um	8e-\	-ter	-ni-	-tis	-um	8g\	-ter	-ni-	-tis	-um
4E-\	do-	-mam	ſu-	dul-	.	4B-\	do-	-mam	ſu-	dul-	4e-\	Do-	-mam	su-	dul-	4g\	do-	-mam	ſu-	dul-
!	!	!	!	!	!	!	!	!	!	!	!	!	!	!	!	!	!	!	!	!
4B-\	-lo-	ge-	-ae	-cem	.	4B-\	-lo-	ge-	-ae	-cem	4d\	-lo-	ge-	-ae	-cem	4f\	-lo-	ge-	-ae	-ce(m)
=6	=6	=6	=6	=6	=6	=6	=6	=6	=6	=6	=6	=6	=6	=6	=6	=6	=6	=6	=6	=6
2F\	-ro-	-men-	gen-	na-	.	2A/	-ro-	-men-	gen-	na-	2c\	-ro-	-men-	gen-	na-	2f\	-ro-	-men-	gen-	na-
4F\	-ſa	-tem	-tis	-tum	.	4A/	-ſa	-tem	-tis	-tum	4c\	-sa	-te	-tis	-tu(m)	4f\	-sa	-tem	-tis	-tum
*	*Xij	*Xij	*Xij	*Xij	*	*	*Xij	*Xij	*Xij	*Xij	*	*Xij	*Xij	*Xij	*Xij	*	*Xij	*Xij	*Xij	*Xij
8D\	iu-	con-	vi-	Mo-	.	8A/	iu-	con-	vi-	Mo-	8d\	jux-	con-	vi-	mo-	8f\	iu-	con-	Vi-	Mo-
!	!	!	!	!	!	!	!	!	!	!	!	!	!	!	!	!	!	!	!	!
8D\	-xta	-tri-	-dit	-ri-	.	8A/	-xta	-tri-	-dit	-ri-	8d\	-ta	-tri-	-dit	-ri-	8a\	-xta	-triſ-	-dit	-ri-
=7	=7	=7	=7	=7	=7	=7	=7	=7	=7	=7	=7	=7	=7	=7	=7	=7	=7	=7	=7	=7
!	!	!	!	!	!	!	!	!	!	!	!LO:TX:t=P:problem:♭ above	!	!	!	!	!	!	!	!	!
4.G\	Cru-	-ſta-	Je-	-en-	.	4.d\	cru-	-ſta-	Je-	-en-	4.B-X\	Cru-	-sta-	Je-	-en-	2g\	Cru-	-ta-	Je-	-en-
8A\	-ce(m)	-tam	-ſum	-do	.	8c\	-cem	-tem	-ſum	-do	8c\	-ce(m)	-tam	-sum	-tem	.	.	.	.	.
!	!	!	!	!	!	!LO:TX:t=P:problem:ciąg dalszy na skanie 98	!	!	!	!	!	!	!	!	!	!	!	!	!	!
4B-\	la-	et	in	de-	.	4B-\	la-	et	in	de-	4d\	la-	et	in-	de-	4d\	-ce(m)	-ta	- ſum	-do
!	!	!	!	!	!	!	!	!	!	!	!	!	!	!	!	!	!	!	!	!
4G\	-cry	do-	tor-	-ſo-	.	4d\	-cry	do-	tor-	-ſo-	4Bn\	-chri-	do-	-tor-	-so-	2g\	la-	et	in	de-
=8	=8	=8	=8	=8	=8	=8	=8	=8	=8	=8	=8	=8	=8	=8	=8	=8	=8	=8	=8	=8
!	!	!	!	!	!	!	!	!	!	!	!	!	!	!	!	!	!	!	!	!
1A	mo	-len-	-men-	-la-	.	1A	mo	-len-	-men-	-la-	4c#X\	-mo-	-len-	-men-	-la-	.	.	.	.	.
.	.	.	.	.	.	.	.	.	.	.	2d\	.	.	.	.	4f\	-cri-	do-	tor-	-ſo-
!	!	!	!	!	!	!	!	!	!	!	!	!	!	!	!	!	!	!	!	!
.	.	.	.	.	.	.	.	.	.	.	.	.	.	.	.	2e\	-mo-	-l(en)-	-men-	-la-
!	!	!	!	!	!	!	!	!	!	!	!	!	!	!	!	!	!	!	!	!
.	.	.	.	.	.	.	.	.	.	.	4c#\	.	.	.	.	.	.	.	.	.
=9	=9	=9	=9	=9	=9	=9-	=9	=9	=9	=9	=9	=9	=9	=9	=9	=9	=9	=9	=9	=9
4D\	ſa	-tem	-tis	-tum	.	4A\	ſa	-tem	-tis	-tum	4d,\	-sa	-tem	-tis	-tum	4f#X\	-ſa	-tem	-tis	-tum
8D\	du(m)	per-	et	dum	.	8A\	du(m)	per-	et	dum	8d\	dum	per-	et	dum	8f#\	du(m)	per	et	dum
8D\	pen-	-tra(n)-	fla-	e-	.	8B-\	pen-	-tran-	fla-	e-	8d\	pen-	-tran-	fla-	e-	8f#\	pen-	tran-	fla-	e-
!LO:N:acc=#	!	!	!	!	!	!	!	!	!	!	!	!	!	!	!	!	!	!	!	!
8En\	-de-	-ſi-	-gel-	-mi-	.	4c\	-de-	-ſi-	-gel-	-mi-	2c\	-de-	-si-	-gel-	-mi-	8g\	-de-	-si-	-gel-	-mi-
8E\	-bat	-vit	-lis	-ſit	.	.	.	.	.	.	.	.	.	.	.	8g\	-bat	-vit	-lis	-ſit
!	!	!	!	!	!	!	!	!	!	!	!	!	!	!	!	!	!	!	!	!
*	*	*ij	*ij	*ij	*	*	*	*	*	*	*	*	*	*	*	*	*ij	*ij	*ij	*ij
8F#X\	du(m)	per-	et	dum	.	4A\	-bat	-vit	-lis	-ſit	.	.	.	.	.	8a\	du(m)	per-	et-	dum
!	!	!	!	!	!	!	!	!	!	!	!	!	!	!	!	!	!	!	!	!
8F#\	pen-	-tra(n)-	fla-	e-	.	.	.	.	.	.	.	.	.	.	.	8a\	pen-	-tran-	-fla-	e-
=10	=10	=10	=10	=10	=10	=10	=10	=10	=10	=10	=10	=10	=10	=10	=10	=10	=10	=10	=10	=10
*	*	*	*	*	*	*	*ij	*ij	*ij	*ij	*	*	*	*	*	*	*	*	*	*
!	!	!	!	!	!	!	!	!	!	!	!LO:TX:t=P:problem:♭ above	!	!	!	!	!	!	!	!	!
4.G\	-de-	-ſi-	-gel-	-mi-	.	8G/	dum	per-	et	dum	4.B-X\	.	.	.	.	4.d\	-de-	-si-	-gel-	-mi-
.	.	.	.	.	.	8A/	pen-	-tran-	fla-	e-	.	.	.	.	.	.	.	.	.	.
.	.	.	.	.	.	8B-\L	-de-	-ſi-	-gel-	-mi-	.	.	.	.	.	.	.	.	.	.
8F\	.	.	.	.	.	16c\L	.	.	.	.	8A/	.	.	.	.	16e\LL	.	.	.	.
.	.	.	.	.	.	16d\JJ	.	.	.	.	.	.	.	.	.	16f#\JJ	.	.	.	.
4.E-X\	.	.	.	.	.	4e-X\	.	.	.	.	[4G/	-bat	-vit	-lis	-sit	4.g\	.	.	.	.
!	!	!	!	!	!	!	!	!	!	!	!	!	!	!	!	!	!	!	!	!
.	.	.	.	.	.	4G/	-bat	-vit	-lis	-ſit	8G/L]	.	.	.	.	.	.	.	.	.
!	!	!	!	!	!	!	!	!	!	!	!	!	!	!	!	!	!	!	!	!
8D\	.	.	.	.	.	.	.	.	.	.	16A/L	.	.	.	.	8fn\	.	.	.	.
!	!	!	!	!	!	!	!	!	!	!	!	!	!	!	!	!	!	!	!	!
.	.	.	.	.	.	.	.	.	.	.	16B-/JJ	.	.	.	.	.	.	.	.	.
=11	=11	=11	=11	=11	=11	=11	=11	=11	=11	=11	=11	=11	=11	=11	=11	=11	=11	=11	=11	=11
*	*	*	*	*	*	*	*	*	*	*	*	*ij	*ij	*ij	*ij	*	*	*	*	*
2C/	.	.	.	.	.	4.G/	dum	per-	et	dum	4.c\	dum	per-	et	dum	2e-X\	.	.	.	.
.	.	.	.	.	.	8A/	pen-	-tran-	fla-	e-	8c\	pen-	tran-	fla-	e-	.	.	.	.	.
!	!	!	!	!	!	!	!	!	!	!	!	!	!	!	!	!	!	!	!	!
2BB-/	-bat	-vit	-lis	-ſit	.	4B-\	-de-	-ſi-	-gel-	-mi-	4d\	-de-	-si-	-gel-	-mi-	4d\	-bat	-vit	-lis	-ſit
*	*	*Xij	*Xij	*Xij	*	*	*	*	*	*	*	*	*	*	*	*	*Xij	*Xij	*Xij	*Xij
!	!	!	!	!	!	!	!	!	!	!	!	!	!	!	!	!	!	!	!	!
.	.	.	.	.	.	4d\	-bat	-vit	-lis	-ſit	4d\	-bat	-vit	-lis	-sit	2g\	Fi-	gla-	ſub-	ſpi-
*	*	*	*	*	*	*	*Xij	*Xij	*Xij	*Xij	*	*Xij	*Xij	*Xij	*Xij	*	*	*	*	*
=12	=12	=12	=12	=12	=12	=12	=12	=12	=12	=12	=12	=12	=12	=12	=12	=12-	=12	=12	=12	=12
2.D/	fi-	gla-	ſub-	ſpi-	.	2.A/	fi-	gla-	ſub-	ſpi-	2.d\	Fi-	gla-	sub-	Spi-	.	.	.	.	.
.	.	.	.	.	.	.	.	.	.	.	.	.	.	.	.	8f#X\L	.	.	.	.
!	!	!	!	!	!	!	!	!	!	!	!	!	!	!	!	!LO:N:acc=#	!	!	!	!
.	.	.	.	.	.	.	.	.	.	.	.	.	.	.	.	8en\J	.	.	.	.
.	.	.	.	.	.	.	.	.	.	.	.	.	.	.	.	4.f#\	.	.	.	.
!	!	!	!	!	!	!	!	!	!	!	!	!	!	!	!	!	!	!	!	!
4D/	-li-	-di-	-di-	-ri-	.	4A/	-li-	-di-	-di-	-ri-	4d\	-li-	-di-	-di-	-ri-	.	.	.	.	.
!	!	!	!	!	!	!	!	!	!	!	!	!	!	!	!	!	!	!	!	!
.	.	.	.	.	.	.	.	.	.	.	.	.	.	.	.	8f#\	-li-	-di-	-di-	-ri-
=13	=13	=13	=13	=13	=13	=13	=13	=13	=13	=13	=13	=13	=13	=13	=13	=13	=13	=13	=13	=13
!	!	!	!	!	!	!LO:TX:t=P:problem:dwukreska	!	!	!	!	!	!	!	!	!	!	!	!	!	!
!	!	!	!	!	!	!LO:N:acc=#	!	!	!	!	!	!	!	!	!	!	!	!	!	!
1GG;	-us	-us	-tum	-tum.	.	1Bn;	-us	-us	-tum	-tum	1d	-us	-us	-tu(m)	-tum	1g;<	-us	us	-tum	-tum
=14||	=14	=14	=14	=14	=14	=14	=14	=14	=14	=14	=14	=14	=14	=14	=14	=14	=14	=14	=14	=14
!LO:LB:g=original	!	!	!	!	!	!	!	!	!	!	!	!	!	!	!	!	!	!	!	!
2.G\	3 O	4 Quae	.	.	.	2.G/	3 O	4 Quae	.	.	2.B-\	3. O	4. Quae	.	.	2.d\	3 O	4 Qua	.	.
!	!	!	!	!	!	!	!	!	!	!	!	!	!	!	!	!	!	!	!	!
4G\	quam	mae-	.	.	.	4G/	quam	mae-	.	.	4d\	quam	mae-	.	.	4g\	quam	mae-	.	.
=15	=15	=15	=15	=15	=15	=15	=15	=15	=15	=15	=15	=15	=15	=15	=15	=15	=15	=15	=15	=15
!	!	!	!	!	!	!	!	!	!	!	!	!	!	!	!	!	!	!	!	!
1C	tri-	-re-	.	.	.	1G	triſ-	-re-	.	.	4d\	tri-	-re-	.	.	1e-X	tri-	-re-	.	.
.	.	.	.	.	.	.	.	.	.	.	8c\L	.	.	.	.	.	.	.	.	.
.	.	.	.	.	.	.	.	.	.	.	8B-\J	.	.	.	.	.	.	.	.	.
!	!	!	!	!	!	!	!	!	!	!	!	!	!	!	!	!	!	!	!	!
.	.	.	.	.	.	.	.	.	.	.	2c\	.	.	.	.	.	.	.	.	.
!	!	!	!	!	!	!	!	!	!	!	!LO:TX:t=P:problem:♭ above	!	!	!	!	!	!	!	!	!
=16	=16	=16	=16	=16	=16	=16	=16	=16	=16	=16	=16	=16	=16	=16	=16	=16	=16	=16	=16	=16
*	*	*	*	*	*	*	*	*	*	*	*	*	*	*	*	*	*	*	*	*
4G,\	-ſtis	-bat	.	.	.	4G/	-tis	-bat	.	.	4B-X\	-stis	-bat	.	.	4d\	-ſtis	-bat	.	.
*	*ij	*ij	*	*	*	*	*ij	*ij	*	*	*	*ij	*ij	*	*	*	*ij	*ij	*	*
2D\	O	Quae	.	.	.	2A/	O	Quae	.	.	2d\	O	Quae	.	.	2f\	O	Qua	.	.
!	!	!	!	!	!	!	!	!	!	!	!	!	!	!	!	!	!	!	!	!
4D\	quam	mae-	.	.	.	4A/	quam	mae-	.	.	4f\	quam	mae-	.	.	4a\	quam	mae-	.	.
=17	=17	=17	=17	=17	=17	=17	=17	=17	=17	=17	=17	=17	=17	=17	=17	=17	=17	=17	=17	=17
!	!	!	!	!	!	!	!	!	!	!	!LO:TX:t=P:problem:♮ above	!	!	!	!	!	!	!	!	!
4.C#X/	tri-	-re-	.	.	.	4.A/	triſ-	-re-	.	.	2en\	tri-	-re-	.	.	8a\L	tri-	-re-	.	.
.	.	.	.	.	.	.	.	.	.	.	.	.	.	.	.	8e\J	.	.	.	.
.	.	.	.	.	.	.	.	.	.	.	.	.	.	.	.	4e\	-ſtis	-bat	.	.
8C#/	-ſtis	-bat	.	.	.	8A/	-tis	-bat	.	.	.	.	.	.	.	.	.	.	.	.
*	*Xij	*Xij	*	*	*	*	*Xij	*Xij	*	*	*	*	*	*	*	*	*Xij	*Xij	*	*
4F\	et	et	.	.	.	4A/	et	et	.	.	4A\	-stis	-bat	.	.	4f\	et	et	.	.
*	*	*	*	*	*	*	*	*	*	*	*	*Xij	*Xij	*	*	*	*	*	*	*
!	!	!	!	!	!	!	!	!	!	!	!	!	!	!	!	!	!	!	!	!
4G\	af-	do-	.	.	.	4B-/	af-	do-	.	.	2d\	et	et	.	.	4d\	af-	do-	.	.
=18	=18	=18	=18	=18	=18	=18	=18	=18	=18	=18	=18-	=18	=18	=18	=18	=18	=18	=18	=18	=18
!	!	!	!	!	!	!	!	!	!	!	!	!	!	!	!	!	!	!	!	!
1E-X	-fli-	-le-	.	.	.	2.B-/	-fli-	-le-	.	.	.	.	.	.	.	1g	-fli-	-le-	.	.
.	.	.	.	.	.	.	.	.	.	.	8c\L	af-	do-	.	.	.	.	.	.	.
.	.	.	.	.	.	.	.	.	.	.	8B-\J	.	.	.	.	.	.	.	.	.
!	!	!	!	!	!	!	!	!	!	!	!	!	!	!	!	!	!	!	!	!
.	.	.	.	.	.	.	.	.	.	.	2c\	-fli-	-le-	.	.	.	.	.	.	.
.	.	.	.	.	.	8A/L	.	.	.	.	.	.	.	.	.	.	.	.	.	.
!	!	!	!	!	!	!	!	!	!	!	!	!	!	!	!	!	!	!	!	!
.	.	.	.	.	.	8G/J	.	.	.	.	.	.	.	.	.	.	.	.	.	.
=19	=19	=19	=19	=19	=19	=19	=19	=19	=19	=19	=19	=19	=19	=19	=19	=19-	=19	=19	=19	=19
4D/	-cta	-bat	.	.	.	4A\	-cta	-bat	.	.	4d\	-cta	-bat	.	.	4f#X\	-cta	-bat	.	.
!	!	!	!	!	!	!	!	!	!	!	!	!	!	!	!	!LO:N:acc=-	!	!	!	!
2BB-/	fu-	et	.	.	.	2B-\	fu-	et	.	.	2d\	fu-	Pi-	.	.	2fn\	fu-	et	.	.
!	!	!	!	!	!	!	!	!	!	!	!	!	!	!	!	!	!	!	!	!
4BB-/	-it	tre-	.	.	.	4B-\	-it	tre-	.	.	4d\	-it	-a	.	.	4f\	-it	tre-	.	.
=20	=20	=20	=20	=20	=20	=20	=20	=20	=20	=20	=20	=20	=20	=20	=20	=20	=20	=20	=20	=20
!	!	!	!	!	!	!	!	!	!	!	!LO:TX:t=P:problem:♭ above	!	!	!	!	!	!	!	!	!
4.E-X\	il-	-me-	.	.	.	8B-\	il-	-me-	.	.	4.e-X\	il-	M(a-	.	.	4.g\	il-	-me-	.	.
.	.	.	.	.	.	8B-\	-la	-bat	.	.	.	.	.	.	.	.	.	.	.	.
.	.	.	.	.	.	8G/L	be-	cum	.	.	.	.	.	.	.	.	.	.	.	.
8F\	-la	-bat	.	.	.	8A/J	.	.	.	.	16d\LL	.	.	.	.	16f\LL	.	.	.	.
.	.	.	.	.	.	.	.	.	.	.	16c\JJ	.	.	.	.	16e\JJ	.	.	.	.
4G\	be-	cum	.	.	.	4B-/	.	.	.	.	4B-\	-la	-ter)	.	.	8d\	.	.	.	.
.	.	.	.	.	.	.	.	.	.	.	.	.	.	.	.	8d\	-la	-bat	.	.
!	!	!	!	!	!	!	!	!	!	!	!	!	!	!	!	!	!	!	!	!
4E-\	-ne-	vi-	.	.	.	8A/L	.	.	.	.	2e-X\	be-	cum	.	.	8g\	be-	dum	.	.
!	!	!	!	!	!	!	!	!	!	!	!	!	!	!	!	!	!	!	!	!
.	.	.	.	.	.	8G/J	.	.	.	.	.	.	.	.	.	8g\	-ne-	Vi-	.	.
=21	=21	=21	=21	=21	=21	=21	=21	=21	=21	=21	=21-	=21	=21	=21	=21	=21	=21	=21	=21	=21
!	!	!	!	!	!	!LO:TX:t=P:problem:ciąg dalszy na skanie 98	!	!	!	!	!	!	!	!	!	!	!	!	!	!
1F	-di-	-de-	.	.	.	4A\	.	.	.	.	.	.	.	.	.	4c\	-di-	-de-	.	.
.	.	.	.	.	.	4B-\	-ne-	vi-	.	.	4d\	-ne-	vi-	.	.	8d\L	.	.	.	.
.	.	.	.	.	.	.	.	.	.	.	.	.	.	.	.	8e\J	.	.	.	.
!	!	!	!	!	!	!	!	!	!	!	!	!	!	!	!	!	!	!	!	!
.	.	.	.	.	.	(4B-\	-di-	-de-	.	.	2c\	-di-	-de-	.	.	2f\	.	.	.	.
!	!	!	!	!	!	!	!	!	!	!	!	!	!	!	!	!	!	!	!	!
.	.	.	.	.	.	4A\)	.	.	.	.	.	.	.	.	.	.	.	.	.	.
=22	=22	=22	=22	=22	=22	=22	=22	=22	=22	=22	=22	=22	=22	=22	=22	=22	=22	=22	=22	=22
4BB-/	-cta	-bat	.	.	.	4B-\	-cta	-bat	.	.	4d\	-cta	-bat	.	.	4d\	-cta	-bat	.	.
8E-X\	Ma-	Na-	.	.	.	8G/	Ma-	Na-	.	.	8B-\	Ma-	Na-	.	.	8g\	Ma-	na-	.	.
8D\	-ter	-ti	.	.	.	8G/	-ter	-ti	.	.	8B-\	-ter	-ti	.	.	8f\	-ter	-ti	.	.
4.C/	U-	pae-	.	.	.	8c\	U-	poe-	.	.	8e-X\	U-	pae-	.	.	4.e-X\	U-	poe-	.	.
.	.	.	.	.	.	8B-\	-ni-	-nas	.	.	8d\	-ni-	.	.	.	.	.	.	.	.
.	.	.	.	.	.	8A\	-ge-	in-	.	.	8c\	-ge-	.	.	.	.	.	.	.	.
!	!	!	!	!	!	!	!	!	!	!	!	!	!	!	!	!	!	!	!	!
8C/	-ni-	-nas	.	.	.	8G\	-ni-	-cly-	.	.	8B-\	-ni-	-nas	.	.	8e-\	-ni-	-nas	.	.
=23	=23	=23	=23	=23	=23	=23	=23	=23	=23	=23	=23	=23	=23	=23	=23	=23	=23	=23	=23	=23
4.D/	-ge-	in-	.	.	.	4F/	-ti	-ti	.	.	4A/	-ti	in-	.	.	4.f\	-ge-	in-	.	.
*	*	*	*	*	*	*	*ij	*ij	*	*	*	*ij	*	*	*	*	*	*	*	*
.	.	.	.	.	.	8F/	Ma-	Na-	.	.	8B-\	U-	-cly-	.	.	.	.	.	.	.
8C/	-ni-	-cly-	.	.	.	8F/	-ter	-ti	.	.	8c\	.	-ti	.	.	8e\	-ni-	-cli-	.	.
*	*	*	*	*	*	*	*	*	*	*	*	*	*ij	*	*	*	*	*	*	*
!	!	!	!	!	!	!	!	!	!	!	!	!	!	!	!	!	!	!	!	!
2BB-/	-ti	-ti	.	.	.	8B-\	U-	poe-	.	.	8d\	-ni-	Na-	.	.	2d\	-ti	-ti	.	.
.	.	.	.	.	.	8A\	-ni-	-nas	.	.	8c\	-ge-	-ti	.	.	.	.	.	.	.
.	.	.	.	.	.	8G\	-ge-	in-	.	.	8B-\	-ni-	poe-	.	.	.	.	.	.	.
!	!	!	!	!	!	!	!	!	!	!	!	!	!	!	!	!	!	!	!	!
.	.	.	.	.	.	8F\	-ni-	-cly-	.	.	8A/	-ti	-nas	.	.	.	.	.	.	.
*	*	*	*	*	*	*	*	*	*	*	*	*Xij	*Xij	*	*	*	*	*	*	*
=24	=24	=24	=24	=24	=24	=24	=24	=24	=24	=24	=24	=24	=24	=24	=24	=24	=24	=24	=24	=24
*	*ij	*ij	*	*	*	*	*	*	*	*	*	*	*	*	*	*	*	*	*	*
4.C/	Ma-	Na-	.	.	.	4E#X/	-ti	-ti	.	.	4.G/	Ma-	Na-	.	.	4.e#X\	Ma-	na-	.	.
*	*	*	*	*	*	*	*Xij	*Xij	*	*	*	*	*	*	*	*	*	*	*	*
!	!	!	!	!	!	!LO:TX:a:t=P:problem:# above	!	!	!	!	!	!	!	!	!	!	!	!	!	!
.	.	.	.	.	.	8e#X\	Ma-	Na-	.	.	.	.	.	.	.	.	.	.	.	.
8BB-/	-ter	-ti	.	.	.	8d\	-ter	-ti	.	.	16A/LL	.	.	.	.	16f\LL	-	.	.	.
.	.	.	.	.	.	.	.	.	.	.	16B-/JJ	.	.	.	.	16g\JJ	.	.	.	.
*	*	*	*	*	*	*	*ij	*ij	*	*	*	*	*	*	*	*	*	*	*	*
4AA/	U-	pae-	.	.	.	4c\	Ma-	Na-	.	.	8c\	.	.	.	.	8a\	.	.	.	.
.	.	.	.	.	.	.	.	.	.	.	8c\	-ter	-ti	.	.	8a\	-ter	-ti	.	.
*	*	*	*	*	*	*	*	*	*	*	*	*ij	*ij	*	*	*	*ij	*ij	*	*
!	!	!	!	!	!	!	!	!	!	!	!	!	!	!	!	!	!	!	!	!
4AA/	-ni-	-nas	.	.	.	4c\	-ter	-ti	.	.	4.c\	Ma-	Na-	.	.	4.a\	Ma-	na-	.	.
*	*	*	*	*	*	*	*Xij	*Xij	*	*	*	*	*	*	*	*	*	*	*	*
=25	=25	=25	=25	=25	=25	=25	=25	=25	=25	=25	=25-	=25	=25	=25	=25	=25	=25	=25	=25	=25
!	!	!	!	!	!	!	!	!	!	!	!	!	!	!	!	!	!	!	!	!
4.BB-/	-ge-	in-	.	.	.	4.d\	U-	poe-	.	.	.	.	.	.	.	.	.	.	.	.
.	.	.	.	.	.	.	.	.	.	.	8B-\	-ter	-ti	.	.	8g\	-ter	-ti	.	.
*	*	*	*	*	*	*	*	*	*	*	*	*Xij	*Xij	*	*	*	*Xij	*Xij	*	*
.	.	.	.	.	.	.	.	.	.	.	8B-\	U-	pae-	.	.	8g\	U-	poe-	.	.
!	!	!	!	!	!	!LO:TX:a:t=P:problem:♭ above	!	!	!	!	!	!	!	!	!	!	!	!	!	!
8C/	.	.	.	.	.	8e-X\	-ni-	-nas	.	.	8A\	-ni-	-nas	.	.	8g\	-ni-	-nas	.	.
4.D/	.	.	.	.	.	4.d\	-ge-	in-	.	.	4.A/	-ge-	in-	.	.	4.g\	-ge-	in-	.	.
!	!	!	!	!	!	!	!	!	!	!	!	!	!	!	!	!LO:TX:t=P:problem:# above	!	!	!	!
!	!	!	!	!	!	!	!	!	!	!	!	!	!	!	!	!	!	!	!	!
8D/	-ni-	-cly-	.	.	.	8d\	-ni-	-cli-	.	.	8A/	-ni-	-cly-	.	.	8f#X\	-ni-	-cli-	.	.
=26	=26	=26	=26	=26	=26	=26-	=26	=26	=26	=26	=26	=26	=26	=26	=26	=26	=26	=26	=26	=26
!LO:LB:g=original	!	!	!	!	!	!	!	!	!	!	!	!	!	!	!	!	!	!	!	!
1GG;	-ti	-ti	.	.	.	1d;	-ti	-ti	.	.	1B-	-ti	-ti	.	.	1g	-ti	-ti	.	.
*	*Xij	*Xij	*	*	*	*	*	*	*	*	*	*	*	*	*	*	*	*	*	*
=27||	=27	=27	=27	=27	=27	=27	=27	=27	=27	=27	=27	=27	=27	=27	=27	=27	=27	=27	=27	=27
*M3/2	*	*	*	*	*	*M3/2	*	*	*	*	*M3/2	*	*	*	*	*M3/2	*	*	*	*
2r	.	.	.	.	.	2r	.	.	.	.	2r	.	.	.	.	2r	.	.	.	.
2G\	5 Quis	6 Quis	.	.	.	2G/	5 Quis	6 Quis	.	.	2B-X\	5 Qvis	6 Qvis	.	.	2d\	5 Quis	6 Quis	.	.
!	!	!	!	!	!	!	!	!	!	!	!	!	!	!	!	!	!	!	!	!
2F\	eſt	non	.	.	.	2A/	eſt	non	.	.	2c\	est	non	.	.	2f\	eſt	no(n)	.	.
=28	=28	=28	=28	=28	=28	=28	=28	=28	=28	=28	=28	=28	=28	=28	=28	=28	=28	=28	=28	=28
2.B-\	ho-	poſ-	.	.	.	2.B-/	ho-	poſ-	.	.	2.d\	ho-	poſ-	.	.	2.f\	ho-	poſ-	.	.
4A\	-mo	-set	.	.	.	4B-/	-mo	-set	.	.	4d\	-mo	-set	.	.	4f\	-mo	-set	.	.
!	!	!	!	!	!	!	!	!	!	!	!	!	!	!	!	!	!	!	!	!
2G\	qui	con-	.	.	.	2B-/	qui	con-	.	.	2d\	qvi	con-	.	.	2g\	qui	con-	.	.
=29	=29	=29	=29	=29	=29	=29	=29	=29	=29	=29	=29	=29	=29	=29	=29	=29	=29	=29	=29	=29
!	!	!	!	!	!	!	!	!	!	!	!LO:TX:t=P:problem:♭ above	!	!	!	!	!	!	!	!	!
2E-X\	non	-tri-	.	.	.	2B-/	no(n)	-tri-	.	.	2e-X\	non	-tri-	.	.	2g\	no(n)	-triſ-	.	.
!	!	!	!	!	!	!	!	!	!	!	!	!	!	!	!	!	!	!	!	!
1F	fle-	-sta-	.	.	.	(2B-/	fle-	-ſta-	.	.	1c	fle-	-sta-	.	.	1f	fle-	-ta-	.	.
!	!	!	!	!	!	!	!	!	!	!	!	!	!	!	!	!	!	!	!	!
.	.	.	.	.	.	2A/)	.	-ri	.	.	.	.	.	.	.	.	.	.	.	.
=30	=30	=30	=30	=30	=30	=30	=30	=30	=30	=30	=30	=30	=30	=30	=30	=30	=30	=30	=30	=30
2BB-/	-ret	-ri	.	.	.	2B-\	-ret	pi-	.	.	2d\	-ret	-ri	.	.	2f\	-ret	-ri	.	.
2B-\	Chri-	pi-	.	.	.	2B-\	Chri-	-am	.	.	2d\	(Chri-	(Chri-	.	.	2f\	Chri-	pi-	.	.
!	!	!	!	!	!	!	!	!	!	!	!	!	!	!	!	!	!	!	!	!
2A\	-sti	-am	.	.	.	2c\	-sti	.	.	.	2c\	-s)ti	-s)ti	.	.	2f\	-(sti)	-am	.	.
=31	=31	=31	=31	=31	=31	=31	=31	=31	=31	=31	=31	=31	=31	=31	=31	=31	=31	=31	=31	=31
1G	Mat-	Mat-	.	.	.	2d\	Mat-	Mat-	.	.	4B-\	M(a-	M(a-	.	.	4g\	Mat-	Mat-	.	.
!	!	!	!	!	!	!	!	!	!	!	!LO:N:acc=#	!	!	!	!	!	!	!	!	!
.	.	.	.	.	.	.	.	.	.	.	4Bn\	-t)r(e)m	-t)r(e)m	.	.	4g\	-re(m)	-re(m)	.	.
*	*	*	*	*	*	*	*	*	*	*	*	*ij	*ij	*	*	*	*	*	*	*
!	!	!	!	!	!	!	!	!	!	!	!	!	!	!	!	!	!	!	!	!
.	.	.	.	.	.	1G	-re(m)	-rem	.	.	2en\	(Chri-	(Chri-	.	.	2g\	Chri-	pi-	.	.
!	!	!	!	!	!	!	!	!	!	!	!	!	!	!	!	!	!	!	!	!
2G\	-re(m)	-rem	.	.	.	.	.	.	.	.	2d\	-s)ti	-s)ti	.	.	2f\	-(sti)	-am	.	.
=32	=32	=32	=32	=32	=32	=32	=32	=32	=32	=32	=32	=32	=32	=32	=32	=32	=32	=32	=32	=32
*	*ij	*ij	*	*	*	*	*ij	*ij	*	*	*	*	*	*	*	*	*	*	*	*
1A	Chri-	pi-	.	.	.	1c	Chri-	pi-	.	.	2c\	M(a-	M(a-	.	.	(2e\	Mat-	Mat-	.	.
.	.	.	.	.	.	.	.	.	.	.	2d\	-t)r(e)m	-t)r(e)m	.	.	2f\)	.	.	.	.
*	*	*	*	*	*	*	*	*	*	*	*	*Xij	*Xij	*	*	*	*	*	*	*
!	!	!	!	!	!	!	!	!	!	!	!	!	!	!	!	!	!	!	!	!
2G\	-sti	-am-	.	.	.	2B-\	-sti	-am	.	.	2en\	si	con-	.	.	2g\	-re(m)	-re(m)	.	.
=33	=33	=33	=33	=33	=33	=33	=33	=33	=33	=33	=33	=33	=33	=33	=33	=33	=33	=33	=33	=33
*	*	*	*	*	*	*	*	*	*	*	*	*	*	*	*	*	*ij	*ij	*	*
2.F\	Ma-	-Ma-	.	.	.	2.A\	Ma-	Ma-	.	.	2.f\	vi-	-tem-	.	.	2.c\	Mat-	Mat-	.	.
4E\	-tre(m)	-trem	.	.	.	4A\	-tre(m)	-trem	.	.	4A/	.	.	.	.	4c\	-re(m)	-re(m)	.	.
*	*Xij	*Xij	*	*	*	*	*Xij	*Xij	*	*	*	*	*	*	*	*	*Xij	*Xij	*	*
!	!	!	!	!	!	!	!	!	!	!	!	!	!	!	!	!	!	!	!	!
2D\	si	con-	.	.	.	2d\	ſi	con-	.	.	4B-\	.	.	.	.	2f\	ſi	con-	.	.
!	!	!	!	!	!	!	!	!	!	!	!	!	!	!	!	!	!	!	!	!
.	.	.	.	.	.	.	.	.	.	.	4c\	.	.	.	.	.	.	.	.	.
=34	=34	=34	=34	=34	=34	=34	=34	=34	=34	=34	=34	=34	=34	=34	=34	=34	=34	=34	=34	=34
2F\	vi-	-tem-	.	.	.	2A\	vi-	-tem-	.	.	2d\	.	.	.	.	2f\	vi-	-te(m)-	.	.
!	!	!	!	!	!	!	!	!	!	!	!	!	!	!	!	!	!	!	!	!
(2G\	-de-	-pla-	.	.	.	(2B-\	-de-	-pla-	.	.	2.d\	-de-	-pla-	.	.	1e	-de-	-pla-	.	.
!	!	!	!	!	!	!	!	!	!	!	!	!	!	!	!	!	!	!	!	!
2A\)	.	.	.	.	.	2A\)	.	.	.	.	.	.	.	.	.	.	.	.	.	.
!	!	!	!	!	!	!	!	!	!	!	!	!	!	!	!	!	!	!	!	!
.	.	.	.	.	.	.	.	.	.	.	4c#X\	.	.	.	.	.	.	.	.	.
=35	=35	=35	=35	=35	=35	=35	=35	=35	=35	=35	=35	=35	=35	=35	=35	=35	=35	=35	=35	=35
!	!	!	!	!	!	!LO:TX:t=P:problem:ciąg dalszy na skanie 98	!	!	!	!	!	!	!	!	!	!	!	!	!	!
1D	-ret	-ri	.	.	.	1A	-ret	-ri	.	.	1d	-ret	-ri	.	.	1d	-ret	-ri	.	.
!	!	!	!	!	!	!	!	!	!	!	!	!	!	!	!	!	!	!	!	!
2D/	in	do-	.	.	.	2A/	in	do-	.	.	2d\	in	do-	.	.	2f\	in	do-	.	.
=36	=36	=36	=36	=36	=36	=36	=36	=36	=36	=36	=36	=36	=36	=36	=36	=36	=36	=36	=36	=36
!LO:N:acc=#	!	!	!	!	!	!	!	!	!	!	!	!	!	!	!	!	!	!	!	!
2BBn/	tan-	-len-	.	.	.	2G/	tan-	-len-	.	.	2d\	tan-	-len-	.	.	2g\	tan-	-len-	.	.
2BB/	-to	-tem	.	.	.	2G/	-to	-tem	.	.	2d\	-to	-te(m)	.	.	2g\	-to	-tem	.	.
!	!	!	!	!	!	!	!	!	!	!	!	!	!	!	!	!	!	!	!	!
2C/	ſup-	cum	.	.	.	2G/	ſup-	cum	.	.	2e-X\	Sup-	cum	.	.	2g\	ſup-	cum	.	.
=37	=37	=37	=37	=37	=37	=37	=37	=37	=37	=37	=37	=37	=37	=37	=37	=37	=37	=37	=37	=37
1AA	-pli-	fi-	.	.	.	1A	-pli-	fi-	.	.	1c	-pli-	fi-	.	.	1g	-pli-	fi-	.	.
!	!	!	!	!	!	!	!	!	!	!	!	!	!	!	!	!	!	!	!	!
2AA/	-ci-	-li-	.	.	.	2A/	-ci-	-li-	.	.	2c\	-ci-	-li-	.	.	2f#X\	-ci-	-li-	.	.
=38	=38	=38	=38	=38	=38	=38	=38	=38	=38	=38	=38	=38	=38	=38	=38	=38	=38	=38	=38	=38
!	!	!	!	!	!	!	!	!	!	!	!LO:N:acc=#	!	!	!	!	!	!	!	!	!
1GG	-o	-o	.	.	.	1D	-o	-o	.	.	1Bn	-o	-o	.	.	1g	-o	-o	.	.
*	*	*	*	*	*	*	*	*	*	*	*	*ij	*ij	*	*	*	*	*	*	*
!	!	!	!	!	!	!	!	!	!	!	!	!	!	!	!	!	!	!	!	!
2G\	in	do-	.	.	.	2G/	in	do-	.	.	2d\	in	do-	.	.	2d\	in	do-	.	.
=39	=39	=39	=39	=39	=39	=39	=39	=39	=39	=39	=39	=39	=39	=39	=39	=39	=39	=39	=39	=39
2E-X\	tan-	-len-	.	.	.	2B-\	tan-	-len-	.	.	2G/	tan-	-len-	.	.	2e-X\	tan-	-len-	.	.
2E-\	-to	-tem	.	.	.	2B-\	-to	-te(m)	.	.	2G/	to	-tem	.	.	2e-\	-to	-tem	.	.
!	!	!	!	!	!	!	!	!	!	!	!	!	!	!	!	!	!	!	!	!
*	*	*ij	*	*	*	*	*ij	*ij	*	*	*	*	*	*	*	*	*ij	*ij	*	*
!LO:N:acc=#	!	!	!	!	!	!	!	!	!	!	!	!	!	!	!	!	!	!	!	!
2BBn/	in	do-	.	.	.	2G/	in	do-	.	.	2d\	in	do-	.	.	2g\	in	do-	.	.
=40	=40	=40	=40	=40	=40	=40	=40	=40	=40	=40	=40	=40	=40	=40	=40	=40	=40	=40	=40	=40
!	!	!	!	!	!	!	!	!	!	!	!	!	!	!	!	!LO:TX:t=P:problem:♭ above	!	!	!	!
1C	tan-	-len-	.	.	.	1G	tan-	-len-	.	.	1c	tan-	-len-	.	.	1e-X	tan-	-len-	.	.
!	!	!	!	!	!	!	!	!	!	!	!	!	!	!	!	!	!	!	!	!
2AA/	-to	-tem	.	.	.	2A/	-to	-te(m)	.	.	2c\	to	-tem	.	.	2f#X\	-to	-tem	.	.
*	*	*Xij	*	*	*	*	*Xij	*Xij	*	*	*	*Xij	*Xij	*	*	*	*Xij	*Xij	*	*
=41	=41	=41	=41	=41	=41	=41	=41	=41	=41	=41	=41	=41	=41	=41	=41	=41	=41	=41	=41	=41
4BB-/	ſup-	cum	.	.	.	2G/	ſup-	cum	.	.	2B-\	sup-	cum	.	.	2g\	ſup-	cum	.	.
4C/	.	.	.	.	.	.	.	.	.	.	.	.	.	.	.	.	.	.	.	.
2.D/	-pli-	fi-	.	.	.	2.d\	-pli-	fi-	.	.	2.A/	-pli-	fi-	.	.	2.g\	-pli-	fi-	.	.
4D/	-ci-	-li-	.	.	.	4c\	-ci-	-li-	.	.	4A/	-ci-	-li-	.	.	4f#X\	-ci-	-li-	.	.
=42	=42	=42	=42	=42	=42	=42	=42	=42	=42	=42	=42	=42	=42	=42	=42	=42-	=42	=42	=42	=42
!	!	!	!	!	!	!LO:N:acc=#	!	!	!	!	!	!	!	!	!	!	!	!	!	!
1.GG;	-o	-o	.	.	.	1.Bn;	-o	-o	.	.	1.D	-o	-o	.	.	1.g;<	-o	-o	.	.
==	==	==	==	==	==	==	==	==	==	==	==	==	==	==	==	==	==	==	==	==
*-	*-	*-	*-	*-	*-	*-	*-	*-	*-	*-	*-	*-	*-	*-	*-	*-	*-	*-	*-	*-
!!!system-decoration: [(s1,s2,s3,s4)]
!!!RDF**kern: > = above
!!!RDF**kern: < = below
!!!AIN: 1 alto 1 empty 2 tenor
!!!ENC: Kamil Watkowski
!!!END: 2021-07-09
